X:344
%%etbk:tnset id:103,pos:2,rep:3x,ant:
%%etbk:wsite http://www.thesession.org/tunes/display/1772
%%etbk:pldat 2016-09-07T15:42,2014-05-17T20:41,2014-05-09T18:41,2014-04-27T15:51,2014-02-15T16:15,2014-02-13T18:31,2014-02-11T16:36,2013-12-11T18:23,2013-11-17T15:43,2013-05-22T15:27
T: An Buachaillin Dreoite
Z: Piano Box Version by Martin Fleischmann
H: Created 2013-02-19 /  Last Modified 2014-04-27
M: 6/8
L: 1/8
R: jig
K: Gmaj
|:"G"!1!D!3!GG !4!AAG | !4!AAG !3!G2A | !1!D!3!GG !4!AA!3!G | "D"!5!c!4!A!3!G !2!=F!1!D!2!C |
"G"!1!D!3!GG !4!AAG | !4!AA!3!G !1!G!2!B!3!d | "D"!4!e2!3!f !4!g!3!f!1!d | !3!c!1!A!2!F "G"!3!G3:|
|: !4!A| "G"!2!BBB !3!cBc | !4!ded !1!G2!1!A | !2!BBB !1!G!2!B!4!d | "D"!3!c!1!A!3!G !2!FG!4!A |
"G"!2!BBB !3!cBc | !4!dc!4!d !2!efg | "D"!5!a2f !4!gf!1!d | !3!c!1!A!2!F "G"!3!G3:|


